src/svgs/plus-document.svg

<?xml version="1.0" encoding="UTF-8" standalone="no"?>
<!-- Created with Inkscape (http://www.inkscape.org/) -->

<svg
   xmlns:dc="http://purl.org/dc/elements/1.1/"
   xmlns:cc="http://creativecommons.org/ns#"
   xmlns:rdf="http://www.w3.org/1999/02/22-rdf-syntax-ns#"
   xmlns:svg="http://www.w3.org/2000/svg"
   xmlns="http://www.w3.org/2000/svg"
   xmlns:sodipodi="http://sodipodi.sourceforge.net/DTD/sodipodi-0.dtd"
   xmlns:inkscape="http://www.inkscape.org/namespaces/inkscape"
   width="20"
   height="20"
   id="svg5738"
   version="1.1"
   inkscape:version="0.91+devel+osxmenu r12911"
   sodipodi:docname="plus-document.svg"
   viewBox="0 0 20 20">
  <defs
     id="defs5740" />
  <sodipodi:namedview
     id="base"
     pagecolor="#ffffff"
     bordercolor="#666666"
     borderopacity="1.0"
     inkscape:pageopacity="0.0"
     inkscape:pageshadow="2"
     inkscape:zoom="22.627417"
     inkscape:cx="2.383512"
     inkscape:cy="5.3796117"
     inkscape:document-units="px"
     inkscape:current-layer="layer1"
     showgrid="true"
     inkscape:window-width="1033"
     inkscape:window-height="844"
     inkscape:window-x="20"
     inkscape:window-y="20"
     inkscape:window-maximized="0"
     inkscape:snap-bbox="true"
     inkscape:bbox-paths="true"
     inkscape:bbox-nodes="true"
     inkscape:object-paths="true"
     inkscape:snap-intersection-paths="true"
     inkscape:object-nodes="true">
    <inkscape:grid
       type="xygrid"
       id="grid5746"
       empspacing="5"
       visible="true"
       enabled="true"
       snapvisiblegridlinesonly="true" />
  </sodipodi:namedview>
  <metadata
     id="metadata5743">
    <rdf:RDF>
      <cc:Work
         rdf:about="">
        <dc:format>image/svg+xml</dc:format>
        <dc:type
           rdf:resource="http://purl.org/dc/dcmitype/StillImage" />
        <dc:title />
      </cc:Work>
    </rdf:RDF>
  </metadata>
  <g
     inkscape:label="Layer 1"
     inkscape:groupmode="layer"
     id="layer1"
     transform="translate(0,-1032.3622)">
    <path
       style="color:#000000;display:inline;overflow:visible;visibility:visible;fill:#000000;fill-opacity:1;fill-rule:nonzero;stroke:none;stroke-width:1;marker:none;enable-background:accumulate"
       d="M 8 5 C 7 5 7 6 7 6 L 7 8 A 2.0002 2.0002 0 1 1 7 12 L 7 14 C 7 15 8 15 8 15 L 14 15 C 15 15 15 14 15 14 L 15 9 C 15 8 14.52702 7.527 14 7 L 13 6 C 12.47295 5.473 12 5 11 5 L 8 5 z M 11.25 6.5625 C 11.39649 6.5335 11.62504 6.6245 12 7 L 13 8 C 13.375 8.3749 13.4668 8.6035 13.4375 8.75 C 13.3885 8.9941 13 9 13 9 L 11 9 L 11 7 C 11 7 11.006 6.6113 11.25 6.5625 z M 5 6.984375 C 4.4952269 6.984375 3.9904491 7.32385 4 8 L 4 9 L 3 9 C 1.647677 8.981 1.647677 11.0191 3 11 L 4 11 L 4 12 C 3.981085 13.3523 6.0191018 13.3523 6 12 L 6 11 L 7 11 C 8.352323 11.019 8.352323 8.9809 7 9 L 6 9 L 6 8 C 6.0094575 7.32385 5.5047731 6.984375 5 6.984375 z "
       transform="translate(0,1032.3622)"
       id="path5809" />
  </g>
</svg>

<?xml version="1.0" encoding="UTF-8" standalone="yes"?>
<svg viewBox="0 0 20 20">
  <path d="M14,7l-1-1c-0.5-0.5-1-1-2-1H8C7,5,7,6,7,6v2c1.1,0,2,0.9,2,2c0,1.1-0.9,2-2,2c0,0,0,0-0.1,0v2c0,1,1,1,1,1h6c1,0,1-1,1-1V9
	C15,8,14.5,7.5,14,7z M13,9h-2V7c0,0,0-0.4,0.2-0.4c0.1,0,0.4,0.1,0.8,0.4l1,1c0.4,0.4,0.5,0.6,0.4,0.8C13.4,9,13,9,13,9z"/>
  <path d="M7,9H6V8c0-0.7-0.5-1-1-1S4,7.3,4,8v1H3c-1.4,0-1.4,2,0,2h1v1c0,1.4,2,1.4,2,0v-1h1C8.4,11,8.4,9,7,9z"/>
</svg>
